X:1
T:Donnybrook Fair
M:6/8
L:1/8
K:D
 A,| DFA A2 F| EDC D2 D| DFA d2 d| c2 B A2 A| B2 A B2 c| d3 d2 B| AFF FED|\
 EFG FED| FFF FED| F A2- A3| B3 d3| B A2- A2 G| FED EDC| D3- D2||
